X:1
T:Rickman, 11.11.11.8 D
T:George Coles Stebbins, 1887
T:Rickman, 11.11.11.8 D
T:Public Domain
C:George Coles Stebbins, 1887
Z:Public Domain
%%score ( 1 2 ) ( 3 4 )
L:1/8
M:4/4
K:Ab
V:1 treble 
V:2 treble 
V:3 bass 
V:4 bass 
V:1
 [CE][CA][DB] | [Ec]3 [Ec] [FB][FA][EG][DF] | [DF]2 [CE]3 [CE][B,G][CA] | %3
 [DB]3 [DB] [DB][DB][CA][DB] | [Ec]4 z [CE][CA][DB] | [Ec]3 [Ec] [FB][FA][EG][DF] | %6
 [FA]2 [CE]3 [CA][CA][EG] | [DF]3 [FA] (DEF)[EG] | [EA]4 z [EA][EG][EA] | %9
 [EB]3 [EB] [AB][AB] [Ac]>[AB] | [GB]2 [Ge]3 [Ge][Ge][Ed] | [Ec]3 [EB] [FA][EA][=DG][FA] | %12
 [EB]4 z [EB][Ec][Ed] | [Ec]3 [EB] [EA][EA] [_GB]>[GA] | [FA]2 [Fd]3 [DF][EG][FA] | %15
 [CE]3 [EA] (DEF)[EG] | [EA]6 |] %17
V:2
 x3 | x8 | x8 | x8 | x8 | x8 | x8 | x4 A3 x | x8 | x8 | x8 | x8 | x8 | x8 | x8 | x4 A3 x | x6 |] %17
V:3
 [A,,A,][A,,A,][A,,A,] | [A,,A,]3 [A,,A,] [D,A,][D,A,][D,A,][D,A,] | %2
 [A,,A,]2 [A,,A,]3 [A,,A,][E,B,][E,A,] | [E,G,]3 [E,G,] [E,G,][E,G,][E,A,][E,G,] | %4
 [A,,A,]4 z [A,,A,][A,,A,][A,,A,] | [A,,A,]3 [A,,A,] [D,A,][D,A,][D,A,][D,A,] | %6
 [A,,D]2 [A,,C]3 [A,,A,][A,,A,][C,A,] | [D,A,]3 [D,D] (B,CD)[E,E] | [A,,C]4 z [A,C][B,D][A,C] | %9
 [G,B,]3 [G,B,] [F,=D][F,D] [B,,D]>[B,,D] | [E,E]2 [E,B,]3 [E,D][E,C][E,B,] | %11
 A,3 [G,B,] [F,C][F,C][B,,B,][=D,B,] | [E,G,]4 z [E,G,][E,A,][E,B,] | %13
 [A,,A,]3 [B,,G,] [C,A,][C,A,] [A,,C]>[A,,C] | [D,D]2 [D,A,]3 [D,A,][D,A,][D,A,] | %15
 [E,A,]3 [E,C] (B,CD)[E,D] | [A,,C]6 |] %17
V:4
 x3 | x8 | x8 | x8 | x8 | x8 | x8 | x4 E,3 x | x8 | x8 | x8 | A,3 x5 | x8 | x8 | x8 | x4 E,3 x | %16
 x6 |] %17

